X:2262
T:Juan y Jaggad Keear 
C:Thomas Crellin, Peel
C:Traditional
O:Isle of Man
Z:Clague collection
B:Kiaull Vannin #262
N:See also KV #227, 397.
M:2/4 
L:1/8 
Q:160 
K:D 
.d.c.B.A|.d.c.B.A|.d.c.B.A|.G.E .A2|dcBA|Bcde|fdec|d2d2|
E-A AA|A2 A2|GB Bc|B2 B2|dcBA|Bcde|fdec|d2d2||

